Adwaita++/apps/16/sigil.svg

<svg height="16" width="16" xmlns="http://www.w3.org/2000/svg">
  <path d="m6.613 10.89c.307-.109.941.036 1.058.646.393-.5.568-1.127-.19-1.711-.195-.15-.476-.307-.824-.38-.577-.121-.922-.114-1.395.141-.472.256-.832.802-.887 1.19-.09.629.168 1.902 1.077 2.662.929.942 2.407 1.009 2.916.951 2.453-.28 4.188-2.449 2.409-4.564-.624-.697-1.616-1.087-2.409-1.458-1.435-.67-2.773-1.097-3.549-1.775-.75-.654-.991-1.522-.888-2.472.095-.867.617-1.607 1.204-2.091 1.332-1.098 3.302-1.069 5.325-.127l1.141-.254c.143.044.249.172.317.381.028.145-.148.285-.127.421.517 1.714.085 2.923-1.014 3.255l-.317-.127c.378-.792.378-1.552 0-2.282q-1.249-1.509-2.789-1.457c-3.205.106-3.033 3.385-.444 4.12.395.2 2.342.879 2.979 1.192q1.309.641 1.838 1.343c1.04 1.75.961 3.953-.443 5.324-1.388 1.356-4.241 1.484-6.466.697l-1.077.191c-.198-.012-.324-.075-.38-.191l-.064-1.077c-1.051-2.303.326-4.518 2.219-4.627.989-.057 2.195.521 2.535 1.394.343.879-.323 2.036-.887 2.282-.565.246-1.552-.21-1.395-.951.063-.297.279-.558.527-.646z" fill="#444"/>
</svg>

<svg xmlns="http://www.w3.org/2000/svg" width="16" height="16" version="1.1">
   <path fill="#444" d="M 6.613 10.89 C 6.92 10.781 7.554 10.926 7.671 11.536 C 8.064 11.036 8.239 10.409 7.481 9.825 C 7.286 9.675 7.005 9.518 6.657 9.445 C 6.08 9.324 5.735 9.331 5.262 9.586 C 4.79 9.842 4.43 10.388 4.375 10.776 C 4.285 11.405 4.543 12.678 5.452 13.438 C 6.381 14.38 7.859 14.447 8.368 14.389 C 10.821 14.109 12.556 11.94 10.777 9.825 C 10.153 9.128 9.161 8.738 8.368 8.367 C 6.933 7.697 5.595 7.27 4.819 6.592 C 4.069 5.938 3.828 5.07 3.931 4.12 C 4.026 3.253 4.548 2.513 5.135 2.029 C 6.467 0.931 8.437 0.96 10.46 1.902 L 11.601 1.648 C 11.744 1.692 11.85 1.82 11.918 2.029 C 11.946 2.174 11.77 2.314 11.791 2.45 C 12.308 4.164 11.876 5.373 10.777 5.705 L 10.46 5.578 C 10.838 4.786 10.838 4.026 10.46 3.296 Q 9.211 1.787 7.671 1.839 C 4.466 1.945 4.638 5.224 7.227 5.959 C 7.622 6.159 9.569 6.838 10.206 7.151 Q 11.515 7.792 12.044 8.494 C 13.084 10.244 13.005 12.447 11.601 13.818 C 10.213 15.174 7.36 15.302 5.135 14.515 L 4.058 14.706 C 3.86 14.694 3.734 14.631 3.678 14.515 L 3.614 13.438 C 2.563 11.135 3.94 8.92 5.833 8.811 C 6.822 8.754 8.028 9.332 8.368 10.205 C 8.711 11.084 8.045 12.241 7.481 12.487 C 6.916 12.733 5.929 12.277 6.086 11.536 C 6.149 11.239 6.365 10.978 6.613 10.89 Z"/>
</svg>
